app/img/step-4/var-1.svg

<svg width="90" height="90" viewBox="0 0 90 90" fill="none" xmlns="http://www.w3.org/2000/svg">
<g clip-path="url(#clip0)">
<path d="M45.0002 90.0002C69.845 90.0002 89.9856 69.853 89.9856 45.0001C89.9856 20.1472 69.845 0 45.0002 0C20.1553 0 0.0146484 20.1472 0.0146484 45.0001C0.0146484 69.853 20.1553 90.0002 45.0002 90.0002Z" fill="#00DF76"/>
<path d="M45.0004 0C44.9801 0 44.9598 0.000703039 44.9395 0.000703039V89.9993C44.9598 89.9993 44.9801 90 45.0004 90C69.8453 90 89.9859 69.8529 89.9859 44.9999C89.9859 20.147 69.8453 0 45.0004 0Z" fill="#00AB5E"/>
<path d="M19.5664 45.894L37.7617 64.0894C38.5553 64.8829 39.842 64.8829 40.6356 64.0894L70.5072 34.2178C71.3007 33.4242 71.3007 32.1375 70.5072 31.3439L65.07 25.9068C64.2765 25.1133 62.9898 25.1133 62.1962 25.9068L40.4693 47.6333C39.6758 48.4269 38.389 48.4269 37.5955 47.6333L27.8589 37.8968C27.081 37.1189 25.8252 37.1013 25.0258 37.8571L19.6072 42.9803C18.7755 43.7668 18.757 45.0846 19.5664 45.894Z" fill="#FFF5F5"/>
<path d="M65.0706 25.9066C64.277 25.1131 62.9903 25.1131 62.1968 25.9066L44.9395 43.1639V59.786L70.5077 34.2178C71.3013 33.4242 71.3013 32.1375 70.5077 31.3437L65.0706 25.9066Z" fill="#DFEBF1"/>
</g>
<defs>
<clipPath id="clip0">
<rect width="90" height="90" fill="white"/>
</clipPath>
</defs>
</svg>

<svg width="90" height="90" fill="none" xmlns="http://www.w3.org/2000/svg"><g clip-path="url(#clip0)"><path d="M45 90c24.845 0 44.986-20.147 44.986-45S69.845 0 45 0 .015 20.147.015 45 20.155 90 45 90z" fill="#00DF76"/><path d="M45 0h-.06v90H45c24.845 0 44.986-20.147 44.986-45S69.846 0 45 0z" fill="#00AB5E"/><path d="M19.566 45.894l18.196 18.195c.793.794 2.08.794 2.874 0l29.871-29.871a2.032 2.032 0 000-2.874l-5.437-5.437a2.032 2.032 0 00-2.874 0L40.47 47.633a2.032 2.032 0 01-2.873 0l-9.737-9.736a2.032 2.032 0 00-2.833-.04l-5.419 5.123a2.032 2.032 0 00-.04 2.914z" fill="#FFF5F5"/><path d="M65.07 25.907a2.032 2.032 0 00-2.873 0L44.939 43.164v16.622l25.569-25.568a2.032 2.032 0 000-2.874l-5.437-5.437z" fill="#DFEBF1"/></g><defs><clipPath id="clip0"><path fill="#fff" d="M0 0h90v90H0z"/></clipPath></defs></svg>
